X:1
T:Title
%%score 1 { 2 | 3 }
L:1/8
Q:1/4=88
M:4/4
K:A
V:1 treble nm="Grand Piano, Soprano"
V:2 bass nm="Choir Pad, Over That Jasper Sea"
V:3 bass 
V:1
 [CE]>[CE] [CE][CE] [CE][CE] [DF]2 | [DE] [CA]3 [Ec]>[Ec] [Ec][Ec] | [DB][CA][CA][DB] [Ec] [DB]3 | %3
w: By~Charles~Eddy~Leslie * * * * * *|||
 [CE]>[CE] [CE][CE] [CE][CE][DF][DF] | [DE] [CA]3 [Fd]>[Ec] [DB][Ec]- | %5
w: ||
 [Ec][CA][DG][DF] [DG] [CA]3 | [Ac]2 [Ac][Ac] [AB]A[Ae][Ae] | [Ae] [Ae]3 [Ec]>[Ec] [Ec][Ec] | %8
w: |||
 [EB][EA] [GB]2 [Ac] [GB]3 | [Ac]2 [Ac][Ac] [AB]A[Ae][Ae] | [Ae] [Ae]3 [Ae]>[Ad] [Ec][Fd] | %11
w: |||
 [Fc][FB] [EF]2 [DG] [CA]3- | [CA]4 z4 |] %13
w: ||
V:2
 A,6 A,2- | A,4 A,4- | A,2 A,2- A, E,3 | A,6 A,2- | A,4 D,3 A,,- | A,,2 E,2- E, A,,3 | E2 EE DCCC | %7
 C C3 E>E EE | EE E2 E E3 | E2 EE DCCC | C C3 C>[K:bass]B, A,A, | A,A, B,2 E, E,3- | E,4 z4 |] %13
V:3
 A,,6 A,,2- | A,,4 A,,4- | A,,2 A,,2- A,, E,,3 | A,,6 A,,2- | A,,4 z4 | z8 | A,2 A,A, A,E,A,,C, | %7
 E, A,3 A,>A, A,A, | A,F, E,2 E, E,3 | A,2 A,A, A,E,A,,C, | E, A,3 A,>A, z D, | D,D, E,2 z A,,3- | %12
 A,,4 z4 |] %13

